icons/svg/filter-2.svg

<svg width="24" height="24" viewBox="0 0 24 24" fill="none" xmlns="http://www.w3.org/2000/svg">
<path d="M9.14512 17.7038V13.7279C9.14512 13.3469 9.14512 13.1564 9.1007 12.978C9.06132 12.8198 8.99642 12.6691 8.90856 12.5318C8.80944 12.3769 8.67105 12.246 8.39427 11.9842L3.57781 7.42878C2.79475 6.68815 2.53876 5.54679 2.93051 4.54267C3.32702 3.52631 4.30632 2.85718 5.3973 2.85718H18.5869C19.6844 2.85718 20.6695 3.53029 21.0684 4.55271C21.4586 5.55278 21.2103 6.68933 20.4386 7.43558L15.674 12.0432C15.4042 12.3041 15.2692 12.4346 15.1727 12.5881C15.0871 12.7242 15.0239 12.8732 14.9856 13.0293C14.9424 13.2054 14.9424 13.3931 14.9424 13.7685V17.7038C14.9424 18.2459 14.9424 18.517 14.8798 18.7613C14.7773 19.1615 14.5533 19.5201 14.2388 19.7878C14.0468 19.9513 13.8032 20.0703 13.316 20.3082C12.1766 20.8648 11.607 21.1431 11.144 21.1428C10.3806 21.1424 9.68403 20.7075 9.34857 20.0217C9.14512 19.6058 9.14512 18.9718 9.14512 17.7038Z" stroke="currentColor" stroke-width="1.5" stroke-linecap="round" stroke-linejoin="round"/>
</svg>

<svg xmlns="http://www.w3.org/2000/svg" width="24" height="24" fill="none" viewBox="0 0 24 24"><path stroke="currentColor" stroke-linecap="round" stroke-linejoin="round" stroke-width="1.5" d="M9.145 17.704v-3.976c0-.381 0-.572-.044-.75a1.5 1.5 0 0 0-.192-.446c-.1-.155-.238-.286-.515-.548L3.578 7.43a2.648 2.648 0 0 1 1.82-4.572h13.189a2.664 2.664 0 0 1 1.852 4.579l-4.765 4.607c-.27.261-.405.392-.501.545a1.5 1.5 0 0 0-.187.441c-.044.176-.044.364-.044.74v3.935c0 .542 0 .813-.062 1.057a2 2 0 0 1-.641 1.027c-.192.163-.436.282-.923.52-1.14.557-1.709.835-2.172.835a2 2 0 0 1-1.795-1.121c-.204-.416-.204-1.05-.204-2.318"/></svg>
